dist/images/svg_sprite/date.svg

<svg width="61" height="65" viewBox="0 0 61 65" fill="none" xmlns="http://www.w3.org/2000/svg">
<path d="M54.9 5.41667V3.25C54.9 1.4552 53.5344 0 51.85 0H49.8167C48.1323 0 46.7667 1.4552 46.7667 3.25V5.41667H41.6833V3.25C41.6833 1.4552 40.3177 0 38.6333 0H36.6C34.9156 0 33.55 1.4552 33.55 3.25V5.41667H27.45V3.25C27.45 1.4552 26.0844 0 24.4 0H22.3667C20.6823 0 19.3167 1.4552 19.3167 3.25V5.41667H14.2333V3.25C14.2333 1.4552 12.8677 0 11.1833 0H9.15C7.46565 0 6.1 1.4552 6.1 3.25V5.41667H0V65H61V5.41667H54.9ZM48.8 3.25C48.8 2.65173 49.2552 2.16667 49.8167 2.16667H51.85C52.4114 2.16667 52.8667 2.65173 52.8667 3.25V9.75C52.8667 10.3483 52.4114 10.8333 51.85 10.8333H49.8167C49.2552 10.8333 48.8 10.3483 48.8 9.75V3.25ZM35.5833 3.25C35.5833 2.65173 36.0385 2.16667 36.6 2.16667H38.6333C39.1948 2.16667 39.65 2.65173 39.65 3.25V9.75C39.65 10.3483 39.1948 10.8333 38.6333 10.8333H36.6C36.0385 10.8333 35.5833 10.3483 35.5833 9.75V3.25ZM21.35 3.25C21.35 2.65173 21.8052 2.16667 22.3667 2.16667H24.4C24.9615 2.16667 25.4167 2.65173 25.4167 3.25V9.75C25.4167 10.3483 24.9615 10.8333 24.4 10.8333H22.3667C21.8052 10.8333 21.35 10.3483 21.35 9.75V3.25ZM8.13333 3.25C8.13333 2.65173 8.58855 2.16667 9.15 2.16667H11.1833C11.7448 2.16667 12.2 2.65173 12.2 3.25V9.75C12.2 10.3483 11.7448 10.8333 11.1833 10.8333H9.15C8.58855 10.8333 8.13333 10.3483 8.13333 9.75V3.25ZM58.9667 62.8333H2.03333V19.5H58.9667V62.8333ZM2.03333 17.3333V7.58333H6.1V9.75C6.1 11.5448 7.46565 13 9.15 13H11.1833C12.8677 13 14.2333 11.5448 14.2333 9.75V7.58333H19.3167V9.75C19.3167 11.5448 20.6823 13 22.3667 13H24.4C26.0844 13 27.45 11.5448 27.45 9.75V7.58333H33.55V9.75C33.55 11.5448 34.9156 13 36.6 13H38.6333C40.3177 13 41.6833 11.5448 41.6833 9.75V7.58333H46.7667V9.75C46.7667 11.5448 48.1323 13 49.8167 13H51.85C53.5344 13 54.9 11.5448 54.9 9.75V7.58333H58.9667V17.3333H2.03333Z" fill="#4054B2"/>
</svg>

<svg width="61" height="65" fill="none" xmlns="http://www.w3.org/2000/svg"><path d="M54.9 5.417V3.25C54.9 1.455 53.534 0 51.85 0h-2.033c-1.685 0-3.05 1.455-3.05 3.25v2.167h-5.084V3.25c0-1.795-1.365-3.25-3.05-3.25H36.6c-1.684 0-3.05 1.455-3.05 3.25v2.167h-6.1V3.25C27.45 1.455 26.084 0 24.4 0h-2.033c-1.685 0-3.05 1.455-3.05 3.25v2.167h-5.084V3.25c0-1.795-1.365-3.25-3.05-3.25H9.15C7.466 0 6.1 1.455 6.1 3.25v2.167H0V65h61V5.417h-6.1zM48.8 3.25c0-.598.455-1.083 1.017-1.083h2.033c.561 0 1.017.485 1.017 1.083v6.5c0 .598-.456 1.083-1.017 1.083h-2.033c-.562 0-1.017-.485-1.017-1.083v-6.5zm-13.217 0c0-.598.456-1.083 1.017-1.083h2.033c.562 0 1.017.485 1.017 1.083v6.5c0 .598-.455 1.083-1.017 1.083H36.6c-.562 0-1.017-.485-1.017-1.083v-6.5zm-14.233 0c0-.598.455-1.083 1.017-1.083H24.4c.562 0 1.017.485 1.017 1.083v6.5c0 .598-.456 1.083-1.017 1.083h-2.033c-.562 0-1.017-.485-1.017-1.083v-6.5zm-13.217 0c0-.598.456-1.083 1.017-1.083h2.033c.562 0 1.017.485 1.017 1.083v6.5c0 .598-.455 1.083-1.017 1.083H9.15c-.561 0-1.017-.485-1.017-1.083v-6.5zm50.834 59.583H2.033V19.5h56.934v43.333zm-56.934-45.5v-9.75H6.1V9.75C6.1 11.545 7.466 13 9.15 13h2.033c1.685 0 3.05-1.455 3.05-3.25V7.583h5.084V9.75c0 1.795 1.365 3.25 3.05 3.25H24.4c1.684 0 3.05-1.455 3.05-3.25V7.583h6.1V9.75c0 1.795 1.366 3.25 3.05 3.25h2.033c1.685 0 3.05-1.455 3.05-3.25V7.583h5.084V9.75c0 1.795 1.365 3.25 3.05 3.25h2.033c1.684 0 3.05-1.455 3.05-3.25V7.583h4.067v9.75H2.033z" fill="#4054B2"/></svg>
